src/images/sprites/svg/icon-adv-3.svg

<svg width="104" height="80" viewBox="0 0 104 80" fill="none" xmlns="http://www.w3.org/2000/svg">
<path d="M92.6941 61.3623L82.6186 57.6505L82.5794 57.8085L82.697 57.69L82.6186 57.6505L82.5794 57.8085L82.697 57.69C82.6578 57.69 82.501 57.4926 82.4226 57.1767C82.305 56.8608 82.2266 56.4659 82.2266 56.071V20.3356C82.2266 19.9407 82.305 19.6248 82.3834 19.4669L82.4226 19.4274L82.1482 19.151V19.5064L82.4226 19.4274L82.1482 19.151V19.5064V19.1115L82.0306 19.4669L82.1482 19.5064V19.1115L82.0306 19.4669L92.0668 23.1786L92.6941 21.4807L82.6186 17.8085L82.1482 17.69C81.7953 17.69 81.4817 17.8479 81.2465 18.0454C80.6192 18.6377 80.4624 19.4274 80.4624 20.3356V56.071C80.4624 56.7423 80.58 57.4136 80.8152 57.9664C81.0505 58.5192 81.3249 59.0325 82.0306 59.3484L92.0668 63.0207L92.6941 61.3623Z" fill="white"/>
<path d="M92.3807 11.9249H91.479V77.9862C91.479 79.0918 92.3807 80 93.4784 80H101.202C102.299 80 103.201 79.0918 103.201 77.9862V11.9249C103.201 10.7798 102.299 9.87164 101.202 9.87164H93.4784C92.3807 9.87164 91.479 10.7798 91.479 11.9249H93.2824L93.4784 11.688H101.202L101.437 11.9249V77.9862L101.202 78.2231H93.4784L93.2824 77.9862V11.9249H92.3807Z" fill="white"/>
<path d="M11.1889 63.0207L21.2251 59.3484C21.9308 59.0325 22.2053 58.5192 22.4405 57.9664C22.6757 57.4136 22.7933 56.7423 22.7933 56.071V20.3356C22.7933 19.7433 22.7149 19.1905 22.4797 18.7167L22.0092 18.0454C21.774 17.8479 21.4604 17.69 21.1075 17.69L20.5979 17.8085H20.6371L10.6008 21.4807L11.1889 23.1786L21.2251 19.4669L21.1075 19.1115V19.5064L21.2251 19.4669L21.1075 19.1115V19.5064V19.1115L20.8331 19.4274L21.1075 19.5064V19.1115L20.8331 19.4274L20.9115 19.3484L20.8331 19.3879V19.4274L20.9115 19.3484L20.8331 19.3879C20.8723 19.4274 21.0291 19.8223 21.0291 20.3356V56.071C21.0291 56.5054 20.9115 56.9792 20.7939 57.2951L20.6371 57.6505L20.5587 57.69L20.6763 57.8085L20.6371 57.6505L20.5587 57.69L20.6763 57.8085L20.6371 57.6505L10.6008 61.3623L11.1889 63.0207Z" fill="white"/>
<path d="M9.77755 10.7798V9.87164H2.05434C0.956626 9.87164 0.0549316 10.7798 0.0549316 11.9249V77.9862C0.0549316 79.0918 0.956626 80 2.05434 80H9.77755C10.8753 80 11.777 79.0918 11.777 77.9862V11.9249C11.777 10.7798 10.8753 9.87164 9.77755 9.87164V11.688L10.0128 11.9249V77.9862L9.77755 78.2231H2.05434L1.81912 77.9862V11.9249L2.05434 11.688H9.77755V10.7798Z" fill="white"/>
<path d="M50.0007 50.5824C49.0206 53.8598 48.0797 56.8608 47.2564 59.8618C46.6292 62.1915 45.6491 64.2843 44.3945 66.2981C42.0815 69.9309 39.8861 73.6821 37.6122 77.3544C35.5344 80.5923 31.4964 80.7108 29.3401 77.6308C27.968 75.696 28.3208 73.6427 29.3793 71.6683C30.6731 69.2991 31.9668 66.9299 33.4958 64.6397C36.5145 60.0592 38.2787 55.0444 39.494 49.7137C40.9054 43.3959 42.6303 37.078 44.2377 30.7601C44.2769 30.4442 44.3553 30.0889 44.4337 29.6545C42.7087 30.0889 41.5326 30.7601 40.9446 32.537C40.0037 35.538 38.7491 38.4205 37.6122 41.382C36.6713 43.7512 34.7111 44.6199 32.3589 43.7118C30.4771 43.001 29.8106 40.8687 30.7515 38.618C32.2412 34.8273 33.8094 31.076 35.2992 27.2853C36.044 25.311 37.181 23.692 38.9844 22.5074C41.9639 20.5331 44.8258 18.4403 47.8837 16.6239C51.2552 14.6101 54.9012 14.8865 58.2728 16.466C59.5273 17.0583 60.5466 18.5193 61.2131 19.7828C63.1733 23.4156 64.8591 27.1668 66.7017 30.7996C67.0545 31.4709 67.6034 32.1027 68.2306 32.537C70.5045 34.077 72.8959 35.5775 75.209 37.078C76.4635 37.9072 77.2084 39.0128 77.0516 40.5923C76.8163 42.9615 74.7385 44.3041 72.5431 43.5143C72.0726 43.3564 71.6022 43.08 71.1709 42.8036C69.9948 42.1323 68.8971 41.3426 67.721 40.6713C64.3102 38.8549 61.3699 36.4857 59.2529 33.1293C59.0961 32.8924 58.8608 32.695 58.4688 32.2606C58.116 34.077 57.9592 35.7355 57.4495 37.2359C56.2342 40.7108 57.0967 43.3959 59.6057 46.0415C62.1932 48.845 64.3494 52.0829 66.5449 55.2419C67.3289 56.3475 67.8386 57.69 68.0738 59.0326C69.0147 64.1659 69.7596 69.2991 70.5437 74.4324C71.0533 77.5518 69.6812 79.4077 66.5057 79.921C63.8006 80.3554 61.6835 78.7759 61.1739 75.9724C60.6642 72.9319 60.1154 69.8914 59.6057 66.8115C59.3313 65.074 58.9785 63.3761 58.7432 61.6387C58.5864 60.3751 58.0376 59.388 57.1359 58.4403C54.7836 55.9526 52.5098 53.386 50.0007 50.5824Z" fill="white"/>
<path d="M63.2127 7.50246C63.2127 11.6091 59.8803 14.8865 55.8423 14.847C51.7259 14.847 48.4327 11.4511 48.5111 7.26554C48.5895 3.19841 51.8827 -0.0394955 55.9991 -8.86666e-06C60.0371 0.0394778 63.2911 3.39584 63.2127 7.50246Z" fill="white"/>
</svg>

<svg xmlns="http://www.w3.org/2000/svg" width="104" height="80" fill="none" viewBox="0 0 104 80">
	<path fill="#fff" d="M92.694 61.362 82.62 57.65l-.04.159.118-.119-.078-.04-.04.159.118-.119c-.04 0-.196-.197-.274-.513a3.263 3.263 0 0 1-.196-1.106V20.336c0-.395.078-.711.156-.87l.04-.039-.275-.276v.355l.275-.079-.275-.276v.355-.395l-.117.356.117.04v-.396l-.117.356 10.036 3.712.627-1.698-10.075-3.673-.47-.118c-.354 0-.667.158-.903.355-.627.593-.784 1.382-.784 2.29v35.736c0 .671.118 1.343.353 1.895.236.553.51 1.066 1.216 1.382l10.036 3.673.627-1.659z"/>
	<path fill="#fff" d="M92.38 11.925h-.901v66.061c0 1.106.902 2.014 2 2.014h7.723a2.015 2.015 0 0 0 1.999-2.014V11.925c0-1.145-.902-2.053-1.999-2.053h-7.724c-1.097 0-1.999.908-1.999 2.053h1.803l.196-.237h7.724l.235.237v66.061l-.235.237h-7.724l-.196-.237V11.925h-.901zM11.189 63.02l10.036-3.672c.706-.316.98-.829 1.215-1.382.236-.552.353-1.224.353-1.895V20.336c0-.593-.078-1.145-.313-1.62l-.47-.67c-.236-.198-.55-.356-.902-.356l-.51.118h.04L10.6 21.481l.588 1.698 10.036-3.712-.117-.355v.394l.117-.04-.117-.355v.395-.395l-.275.316.275.08v-.396l-.275.316.079-.079-.079.04v.04l.079-.08-.079.04c.04.04.196.434.196.948V56.07c0 .434-.117.908-.235 1.224l-.157.355-.078.04.117.119-.039-.158-.078.039.117.119-.039-.158-10.036 3.711.588 1.659z"/>
	<path fill="#fff" d="M9.778 10.78v-.908H2.054c-1.097 0-2 .908-2 2.053v66.061c0 1.106.903 2.014 2 2.014h7.724c1.097 0 1.999-.908 1.999-2.014V11.925c0-1.145-.902-2.053-2-2.053v1.816l.236.237v66.061l-.235.237H2.054l-.235-.237V11.925l.235-.237h7.724v-.908zM50 50.582c-.98 3.278-1.92 6.279-2.744 9.28-.627 2.33-1.607 4.422-2.861 6.436-2.314 3.633-4.509 7.384-6.783 11.056-2.078 3.238-6.116 3.357-8.272.277-1.372-1.935-1.02-3.988.04-5.963 1.293-2.369 2.587-4.738 4.116-7.028 3.018-4.58 4.783-9.596 5.998-14.926 1.411-6.318 3.136-12.636 4.744-18.954.039-.316.117-.671.196-1.106-1.725.435-2.901 1.106-3.49 2.883-.94 3.001-2.195 5.883-3.332 8.845-.94 2.37-2.9 3.238-5.253 2.33-1.882-.711-2.548-2.843-1.608-5.094 1.49-3.79 3.058-7.542 4.548-11.333.745-1.974 1.882-3.593 3.685-4.778 2.98-1.974 5.842-4.067 8.9-5.883 3.371-2.014 7.017-1.737 10.389-.158 1.254.592 2.274 2.053 2.94 3.317 1.96 3.633 3.646 7.384 5.489 11.017a4.992 4.992 0 0 0 1.529 1.737c2.273 1.54 4.665 3.04 6.978 4.541 1.254.83 2 1.935 1.843 3.514-.236 2.37-2.314 3.712-4.509 2.922-.47-.158-.94-.434-1.372-.71-1.176-.672-2.274-1.461-3.45-2.133-3.41-1.816-6.351-4.185-8.468-7.542-.157-.237-.392-.434-.784-.868-.353 1.816-.51 3.474-1.02 4.975-1.215 3.475-.352 6.16 2.157 8.806 2.587 2.803 4.743 6.04 6.939 9.2.784 1.105 1.294 2.448 1.529 3.79.94 5.134 1.686 10.267 2.47 15.4.51 3.12-.863 4.976-4.038 5.489-2.705.434-4.822-1.145-5.332-3.949-.51-3.04-1.059-6.08-1.568-9.16-.275-1.738-.628-3.436-.863-5.173-.157-1.264-.705-2.251-1.607-3.199-2.352-2.487-4.626-5.054-7.135-7.858zM63.213 7.502c0 4.107-3.333 7.385-7.37 7.345-4.117 0-7.41-3.396-7.332-7.581A7.38 7.38 0 0 1 56 0c4.038.04 7.292 3.396 7.214 7.502z"/>
</svg>
